Newaita/actions/32/align-horizontal-top-out.svg

<svg height="32" viewBox="0 0 32 32" width="32" xmlns="http://www.w3.org/2000/svg"><g fill="#424242"><path d="m29.105469 16.125c0-.363281-.292969-.660156-.660157-.660156h-25.136718c-.367188 0-.664063.296875-.664063.660156 0 .367188.296875.664062.664063.664062h25.136718c.367188 0 .660157-.296874.660157-.664062zm0 0"/><path d="m19.84375 28.035156c-1.464844 0-2.644531-1.179687-2.644531-2.648437v-3.96875c0-1.464844 1.179687-2.644531 2.644531-2.644531h3.972656c1.464844 0 2.644532 1.179687 2.644532 2.644531v3.96875c0 1.46875-1.179688 2.648437-2.644532 2.648437zm.664062-2.648437h2.644532c.367187 0 .664062-.292969.664062-.660157v-2.644531c0-.367187-.296875-.664062-.664062-.664062h-2.644532c-.367187 0-.664062.296875-.664062.664062v2.644531c0 .367188.296875.660157.664062.660157zm0 0"/><path d="m7.9375 29.355469c-1.464844 0-2.644531-1.179688-2.644531-2.644531v-5.292969c0-1.464844 1.179687-2.644531 2.644531-2.644531h3.96875c1.46875 0 2.648438 1.179687 2.648438 2.644531v5.292969c0 1.464843-1.179688 2.644531-2.648438 2.644531zm.664062-2.644531h2.644532c.367187 0 .660156-.296876.660156-.660157v-3.96875c0-.367187-.292969-.664062-.660156-.664062h-2.644532c-.367187 0-.664062.296875-.664062.664062v3.96875c0 .363281.296875.660157.664062.660157zm0 0"/><path d="m26.460938 10.835938c0 1.464843-1.179688 2.644531-2.644532 2.644531h-5.292968c-1.464844 0-2.648438-1.179688-2.648438-2.644531v-3.96875c0-1.46875 1.183594-2.648438 2.648438-2.648438h5.292968c1.464844 0 2.644532 1.179688 2.644532 2.648438zm0 0"/></g></svg>

<svg xmlns="http://www.w3.org/2000/svg" xmlns:xlink="http://www.w3.org/1999/xlink" width="32px" height="32px" viewBox="0 0 32 32" version="1.1">
<g id="surface1">
     <defs>
  <style id="current-color-scheme" type="text/css">
   .ColorScheme-Text { color:#424242; } .ColorScheme-Highlight { color:#eeeeee; }
  </style>
 </defs>
<path style="fill:currentColor" class="ColorScheme-Text" d="M 29.105469 16.125 C 29.105469 15.761719 28.8125 15.464844 28.445312 15.464844 L 3.308594 15.464844 C 2.941406 15.464844 2.644531 15.761719 2.644531 16.125 C 2.644531 16.492188 2.941406 16.789062 3.308594 16.789062 L 28.445312 16.789062 C 28.8125 16.789062 29.105469 16.492188 29.105469 16.125 Z M 29.105469 16.125 "/>
     <defs>
  <style id="current-color-scheme" type="text/css">
   .ColorScheme-Text { color:#424242; } .ColorScheme-Highlight { color:#eeeeee; }
  </style>
 </defs>
<path style="fill:currentColor" class="ColorScheme-Text" d="M 19.84375 28.035156 C 18.378906 28.035156 17.199219 26.855469 17.199219 25.386719 L 17.199219 21.417969 C 17.199219 19.953125 18.378906 18.773438 19.84375 18.773438 L 23.816406 18.773438 C 25.28125 18.773438 26.460938 19.953125 26.460938 21.417969 L 26.460938 25.386719 C 26.460938 26.855469 25.28125 28.035156 23.816406 28.035156 Z M 20.507812 25.386719 L 23.152344 25.386719 C 23.519531 25.386719 23.816406 25.09375 23.816406 24.726562 L 23.816406 22.082031 C 23.816406 21.714844 23.519531 21.417969 23.152344 21.417969 L 20.507812 21.417969 C 20.140625 21.417969 19.84375 21.714844 19.84375 22.082031 L 19.84375 24.726562 C 19.84375 25.09375 20.140625 25.386719 20.507812 25.386719 Z M 20.507812 25.386719 "/>
     <defs>
  <style id="current-color-scheme" type="text/css">
   .ColorScheme-Text { color:#424242; } .ColorScheme-Highlight { color:#eeeeee; }
  </style>
 </defs>
<path style="fill:currentColor" class="ColorScheme-Text" d="M 7.9375 29.355469 C 6.472656 29.355469 5.292969 28.175781 5.292969 26.710938 L 5.292969 21.417969 C 5.292969 19.953125 6.472656 18.773438 7.9375 18.773438 L 11.90625 18.773438 C 13.375 18.773438 14.554688 19.953125 14.554688 21.417969 L 14.554688 26.710938 C 14.554688 28.175781 13.375 29.355469 11.90625 29.355469 Z M 8.601562 26.710938 L 11.246094 26.710938 C 11.613281 26.710938 11.90625 26.414062 11.90625 26.050781 L 11.90625 22.082031 C 11.90625 21.714844 11.613281 21.417969 11.246094 21.417969 L 8.601562 21.417969 C 8.234375 21.417969 7.9375 21.714844 7.9375 22.082031 L 7.9375 26.050781 C 7.9375 26.414062 8.234375 26.710938 8.601562 26.710938 Z M 8.601562 26.710938 "/>
     <defs>
  <style id="current-color-scheme" type="text/css">
   .ColorScheme-Text { color:#424242; } .ColorScheme-Highlight { color:#eeeeee; }
  </style>
 </defs>
<path style="fill:currentColor" class="ColorScheme-Text" d="M 26.460938 10.835938 C 26.460938 12.300781 25.28125 13.480469 23.816406 13.480469 L 18.523438 13.480469 C 17.058594 13.480469 15.875 12.300781 15.875 10.835938 L 15.875 6.867188 C 15.875 5.398438 17.058594 4.21875 18.523438 4.21875 L 23.816406 4.21875 C 25.28125 4.21875 26.460938 5.398438 26.460938 6.867188 Z M 26.460938 10.835938 "/>
</g>
</svg>
